data/chains/V2/arbone/arbone.branded.svg

<svg width="24" height="24" viewBox="0 0 24 24" fill="none" xmlns="http://www.w3.org/2000/svg">
<path d="M13.4891 13.5214L12.5168 16.1724C12.4866 16.2473 12.4866 16.3309 12.5168 16.4057L14.1839 20.9715L16.1233 19.8605L13.8002 13.5214C13.7879 13.4901 13.7665 13.4634 13.7387 13.4445C13.711 13.4257 13.6782 13.4156 13.6446 13.4156C13.611 13.4156 13.5782 13.4257 13.5505 13.4445C13.5228 13.4634 13.5014 13.4901 13.4891 13.5214ZM15.4336 9.05546C15.4218 9.0237 15.4005 8.99631 15.3728 8.97697C15.3449 8.95764 15.3119 8.94727 15.278 8.94727C15.2442 8.94727 15.2111 8.95764 15.1833 8.97697C15.1555 8.99631 15.1343 9.0237 15.1225 9.05546L14.1502 11.7052C14.12 11.7801 14.12 11.8637 14.1502 11.9385L16.8894 19.4159L18.8236 18.3049L15.4336 9.04898V9.05546Z" fill="#12AAFF"/>
<path d="M12.0004 3.11616C12.0497 3.11616 12.096 3.12912 12.1391 3.15505L19.6398 7.51598C19.6823 7.53989 19.7176 7.57475 19.742 7.61693C19.7663 7.65912 19.7791 7.70708 19.7785 7.75581V16.2391C19.7788 16.2876 19.7661 16.3353 19.7416 16.3773C19.7172 16.4192 19.6821 16.4539 19.6398 16.4777L12.1391 20.8554C12.0967 20.879 12.049 20.8915 12.0004 20.8915C11.9519 20.8915 11.9041 20.879 11.8617 20.8554L4.36101 16.4854C4.31834 16.4615 4.28295 16.4263 4.25854 16.3839C4.23411 16.3415 4.2216 16.2933 4.2223 16.2443V7.75581C4.2223 7.65469 4.27805 7.56654 4.36101 7.51598L11.8617 3.15505C11.9028 3.12741 11.9509 3.11213 12.0004 3.11098V3.11616ZM12.0004 2C11.7334 2.00183 11.4714 2.07238 11.2395 2.20482L3.87229 6.4439C3.64146 6.57656 3.44962 6.76763 3.31605 6.99791C3.18247 7.22821 3.11187 7.48959 3.11133 7.75581V16.2391C3.11133 16.7784 3.39912 17.284 3.87229 17.5562L11.2395 21.7953C11.4706 21.9293 11.7331 22 12.0004 22C12.2677 22 12.5302 21.9293 12.7614 21.7953L20.1285 17.5562C20.361 17.4241 20.5541 17.2325 20.6878 17.001C20.8216 16.7695 20.8912 16.5066 20.8895 16.2391V7.75581C20.8895 7.21653 20.6004 6.71095 20.1285 6.4439L12.7614 2.20482C12.5295 2.07238 12.2675 2.00183 12.0004 2Z" fill="#9DCCED"/>
<path d="M7.12793 19.428L7.80592 17.5781L9.16709 18.706L7.89537 19.8727L7.12793 19.428Z" fill="#213147"/>
<path d="M11.3838 6.99902H9.51187C9.44303 7.00054 9.37633 7.0231 9.32072 7.06365C9.26509 7.10421 9.22322 7.16082 9.20074 7.22589L5.2002 18.2993L7.12787 19.4272L11.5394 7.23237C11.5488 7.20631 11.5521 7.17835 11.5486 7.15083C11.5451 7.12329 11.535 7.09701 11.5193 7.07416C11.5036 7.05132 11.4826 7.03257 11.4581 7.01949C11.4336 7.00643 11.4064 6.9994 11.3786 6.99902H11.3838ZM14.6506 6.99902H12.7839C12.7157 7.00015 12.6494 7.02194 12.5938 7.06152C12.5383 7.1011 12.4961 7.15661 12.4727 7.2207L7.89531 19.8549L9.82818 20.9828L14.8062 7.22718C14.8208 7.18887 14.821 7.14656 14.8067 7.10814C14.7923 7.06971 14.7646 7.03784 14.7284 7.01847C14.7044 7.00582 14.6777 6.99915 14.6506 6.99902Z" fill="white"/>
</svg>

<svg xmlns="http://www.w3.org/2000/svg" width="24" height="24" fill="none" viewBox="0 0 24 24">
    <path fill="#12AAFF" d="m13.49 13.523-.973 2.65a.32.32 0 0 0 0 .234l1.667 4.567 1.939-1.111-2.323-6.34a.17.17 0 0 0-.155-.107.17.17 0 0 0-.156.107m1.944-4.467a.167.167 0 0 0-.311 0l-.973 2.65a.32.32 0 0 0 0 .234l2.74 7.478 1.933-1.111-3.39-9.256z"/>
    <path fill="#9DCCED" d="M12 3.117c.05 0 .094.01.139.039l7.5 4.361a.28.28 0 0 1 .14.239v8.484a.28.28 0 0 1-.14.239l-7.5 4.378a.28.28 0 0 1-.278 0l-7.5-4.372a.28.28 0 0 1-.14-.24V7.756c0-.1.056-.189.14-.239l7.5-4.361A.3.3 0 0 1 12 3.11zM12 2a1.55 1.55 0 0 0-.761.206L3.872 6.445a1.52 1.52 0 0 0-.762 1.311v8.484c0 .539.29 1.045.762 1.317l7.367 4.239a1.52 1.52 0 0 0 1.522 0l7.367-4.24a1.5 1.5 0 0 0 .762-1.316V7.756c0-.539-.29-1.045-.762-1.311l-7.367-4.24A1.55 1.55 0 0 0 12 2"/>
    <path fill="#213147" d="m7.127 19.43.678-1.851 1.361 1.128-1.272 1.167z"/>
    <path fill="#fff" d="M11.384 7H9.51a.33.33 0 0 0-.311.228l-4 11.073 1.928 1.128 4.411-12.195a.174.174 0 0 0-.16-.234zm3.266 0h-1.866a.33.33 0 0 0-.312.223L7.895 19.857l1.934 1.128 4.978-13.757A.167.167 0 0 0 14.65 7"/>
</svg>
